svg/u1f64e_200d_2642.svg

<svg viewBox="0 0 128 128" xmlns="http://www.w3.org/2000/svg">
  <g>
    <linearGradient id="SVGID_1_" gradientUnits="userSpaceOnUse" x1="64" x2="64" y1="84.2565" y2="123.6627">
      <stop offset="0" stop-color="#00BFA5"/>
      <stop offset="0.515" stop-color="#00B29A"/>
      <stop offset="1" stop-color="#00AB94"/>
    </linearGradient>
    <path d="M105.85,103.24c-2.11-4.78-8.32-19.66-15.93-23.1C81.66,76.42,64,80.84,64,80.84 s-17.4-4.23-25.66-0.5c-7.61,3.43-14.08,18.12-16.2,22.9c-2.11,4.78-3.8,11.35-1.13,15.38c2.68,4.03,5.93,5.38,11.92,5.38 c3.67,0,53.17,0,61.11,0s10.26-1.34,12.93-5.38C109.65,114.59,107.96,108.02,105.85,103.24z" fill="url(#SVGID_1_)"/>
    <linearGradient id="hand_1_" gradientUnits="userSpaceOnUse" x1="26.3099" x2="53.2703" y1="99.818" y2="99.818">
      <stop offset="0.5" stop-color="#FFCA28"/>
      <stop offset="1" stop-color="#FFB300"/>
    </linearGradient>
    <path id="hand_9_" d="M52.88,101.03c0.38-0.12,0.5-0.57,0.28-0.9c-1.54-2.32-5.72-6.76-10.76-7.79 c-3.25-0.67-6.42-0.31-9.15,0.38c-2.4,0.61-5.09,2.23-5.79,3.2c-1.64,2.28,0.37,3.17,0.37,3.17s-2.01,1.41-1.41,2.97 c0.72,1.84,3.24,0.9,3.24,0.9s-1.28,1.17-0.09,2.53c0.99,1.14,3.37,0.35,3.37,0.35s-0.39,0.9,0.77,1.57 c1.57,0.91,3.92-1.18,5.54-1.83c0.88-0.35,2.62-0.96,3.67-1.34C46.16,103.09,50.16,102.28,52.88,101.03z" fill="url(#hand_1_)"/>
    <path d="M47.95,124c11.25-1.44,31.69-10.89,32.27-11.4c0.58-0.51,0.2-1.99,0.2-1.99s12.52-5.18,13.2-4.26 s0.36,1.24-0.57,1.87c-0.66,0.44-11.06,4.66-15.73,7.67c-7.33,4.71-14.24,8.06-14.24,8.06L47.95,124z" fill="#00796B"/>
    <linearGradient id="hand_2_" gradientUnits="userSpaceOnUse" x1="68.5775" x2="94.0704" y1="104.21" y2="104.21">
      <stop offset="0.5" stop-color="#FFCA28"/>
      <stop offset="1" stop-color="#FFB300"/>
    </linearGradient>
    <path id="hand_8_" d="M68.58,98.96c0,0,7.59,3.01,11.85,11.65c0,0,1.88-0.24,4.34-1.06 s3.35-1.65,4.92-1.93c1.57-0.28,3.96-0.34,4.26-0.87c0.8-1.42-2.11-6.15-7.32-7.79C78.41,96.37,68.58,98.96,68.58,98.96z" fill="url(#hand_2_)"/>
    <path id="tone_11_" d="M31.3,106.12c0.35-0.46,1.2-1.23,1.7-1.66c1.55-1.35,3.77-2.52,6.16-3.2 c0.28-0.08,0.58,0.08,0.66,0.37c0.08,0.28-0.08,0.58-0.37,0.66c-2.93,0.83-4.95,2.02-6.51,3.57c0,0-0.27,0.08-0.78,0.2 C31.78,106.14,31.3,106.12,31.3,106.12z" fill="#EDA600"/>
    <path id="tone_7_" d="M27.91,103.19c2.72-3.21,5.75-4.16,9.1-5.02c0.28-0.07,0.58,0.1,0.65,0.39 s-0.1,0.58-0.39,0.65c-3.16,0.81-5.56,1.77-7.62,3.76c0,0-0.31,0.14-0.73,0.2C28.37,103.25,27.91,103.19,27.91,103.19z" fill="#EDA600"/>
    <path id="tone_5_" d="M27.03,98.4c1.9-1.7,4.35-2.88,7.63-3.67c0.29-0.06,0.58,0.11,0.65,0.4 c0.07,0.29-0.11,0.58-0.4,0.65c-3.04,0.73-5.32,1.8-7.07,3.34c0,0-0.27-0.09-0.46-0.24C27.19,98.71,27.03,98.4,27.03,98.4z" fill="#EDA600"/>
    <path id="neck_1_" d="M71.81,77.11H56.19v8.59c0,3.88,3.18,7.03,7.11,7.03h1.42c3.92,0,7.11-3.15,7.11-7.03 L71.81,77.11L71.81,77.11z" fill="#E59600"/>
    <path id="ears_3_" d="M87.51,43H40.49c-5.07,0-9.21,4.42-9.21,9.82c0,5.4,4.15,9.82,9.21,9.82H87.5 c5.07,0,9.21-4.42,9.21-9.82C96.72,47.42,92.58,43,87.51,43z" fill="#E59600"/>
    <path id="head_3_" d="M64,9.14c-14.97,0-28.84,16.01-28.84,39.05c0,22.92,14.29,34.25,28.84,34.25 S92.84,71.1,92.84,48.19C92.84,25.15,78.97,9.14,64,9.14z" fill="#FFCA28"/>
    <path id="eye" d="M54.1,50.21c0,1.33-0.58,2.53-1.49,3.33H47.1c-0.91-0.8-1.49-2-1.49-3.33 c0-2.43,1.9-4.39,4.24-4.39C52.2,45.82,54.1,47.78,54.1,50.21z" fill="#404040"/>
    <path id="eye_3_" d="M82.38,50.21c0,1.33-0.58,2.53-1.49,3.33h-5.51c-0.91-0.8-1.49-2-1.49-3.33 c0-2.43,1.9-4.39,4.24-4.39C80.48,45.82,82.38,47.78,82.38,50.21z" fill="#404040"/>
    <path id="nose_3_" d="M67.32,58.17c-0.09-0.03-0.18-0.06-0.28-0.07h-6.08c-0.09,0.01-0.19,0.03-0.28,0.07 c-0.55,0.22-0.85,0.79-0.59,1.4c0.26,0.61,1.47,2.31,3.91,2.31c2.44,0,3.66-1.71,3.91-2.31C68.17,58.96,67.87,58.39,67.32,58.17z" fill="#E59600"/>
    <path id="mouth_3_" d="M72.25,70.09c-0.41-1.47-4.05-4.81-8.5-4.81c-4.48,0-7.61,3.65-7.99,4.8 c-0.02,0.07-0.09,0.28,0.06,0.4c0.2,0.15,0.45-0.01,1.21-0.5c1.36-0.88,3.9-2.51,6.8-2.51c2.74,0,5.29,1.54,6.81,2.46 c0.71,0.43,1.1,0.67,1.35,0.67c0.07,0,0.13-0.02,0.18-0.06C72.34,70.41,72.28,70.17,72.25,70.09z" fill="#795548"/>
    <path id="tone_8_" d="M63.9,71.88c2.46,0,4.54,1.34,4.34,0.62c-0.21-0.72-2.13-2.51-4.48-2.51 c-2.35,0-4.01,1.91-4.21,2.51C59.36,73.11,61.44,71.88,63.9,71.88z" fill="#EDA600"/>
    <path id="hair_4_" d="M63.9,3.15L63.9,3.15c-0.01,0-0.01,0-0.01,0s-0.01,0-0.01,0v0 C24.62,3.36,32.66,48.19,32.66,48.19s1.76,4.62,2.56,6.66c0.12,0.3,0.54,0.26,0.61-0.05c0.84-3.75,3.86-17.04,5.38-21.08 c0.9-2.38,3.37-3.77,5.87-3.31c3.85,0.7,9.98,1.56,16.74,1.56c0.02,0,0.05,0,0.07,0s0.05,0,0.07,0c6.76,0,12.89-0.86,16.74-1.56 c2.5-0.45,4.97,0.93,5.87,3.31c1.51,4.03,4.51,17.24,5.36,21.05c0.07,0.31,0.5,0.34,0.61,0.04l2.58-6.62 C95.12,48.19,103.16,3.36,63.9,3.15z" fill="#543930"/>
    <radialGradient id="hairHighlights_1_" cx="63.89" cy="88.7536" gradientTransform="matrix(1 0 0 -1.1282 0 140.4857)" gradientUnits="userSpaceOnUse" r="32.9088">
      <stop offset="0.7945" stop-color="#6D4C41" stop-opacity="0"/>
      <stop offset="1" stop-color="#6D4C41"/>
    </radialGradient>
    <path id="hairHighlights_5_" d="M95.12,48.19c0,0,8.04-44.83-31.21-45.04v0 c-0.01,0-0.01,0-0.01,0h0c0,0-0.01,0-0.01,0l0,0c-0.61,0-1.21,0.02-1.8,0.04c-1.17,0.05-2.3,0.14-3.38,0.27c-0.01,0-0.02,0-0.03,0 c-0.08,0.01-0.15,0.02-0.23,0.03c-33.04,4.16-25.78,44.7-25.78,44.7l2.57,6.63c0.11,0.29,0.54,0.26,0.61-0.04 c0.85-3.79,3.85-17.03,5.37-21.06c0.9-2.38,3.37-3.77,5.87-3.31c3.85,0.7,9.98,1.56,16.74,1.56c0.02,0,0.05,0,0.07,0s0.05,0,0.07,0 c6.76,0,12.89-0.86,16.74-1.56c2.5-0.45,4.97,0.93,5.87,3.31c1.52,4.04,4.54,17.36,5.37,21.1c0.07,0.31,0.49,0.34,0.6,0.05 C93.34,52.83,95.12,48.19,95.12,48.19z" fill="url(#hairHighlights_1_)"/>
    <path id="eyebrows_4_" d="M43.32,42.91c2.75-3.9,9.21-4.03,12.45-0.71c0.56,0.57,1.16,1.33,0.73,2.16 c-0.47,0.93-1.42,0.78-2.21,0.46c-2.1-0.85-4.26-1.23-6.52-0.77c-0.98,0.2-1.81,0.61-2.74,0.93 C43.79,45.42,42.52,44.11,43.32,42.91z" fill="#6D4C41"/>
    <path id="eyebrows_3_" d="M83.07,45.08c-1.93-0.84-3.88-1.32-6.01-1.08c-0.96,0.11-1.92,0.36-2.82,0.72 c-0.71,0.28-1.49,0.75-2.23,0.24c-2.11-1.46,1.64-3.83,2.74-4.31c2.39-1.03,5.23-0.94,7.54,0.27c0.91,0.48,1.91,1.17,2.45,2.08 C85.42,44.12,84.4,45.63,83.07,45.08z" fill="#6D4C41"/>
  </g>
</svg>

<svg viewBox="0 0 128 128" xmlns="http://www.w3.org/2000/svg">
  <defs>
    <linearGradient id="SVGID_1_" gradientUnits="userSpaceOnUse" x1="64" x2="64" y1="84.2565" y2="123.6627">
      <stop offset="0" stop-color="#00BFA5"/>
      <stop offset="0.515" stop-color="#00B29A"/>
      <stop offset="1" stop-color="#00AB94"/>
    </linearGradient>
    <linearGradient id="hand_1_" gradientUnits="userSpaceOnUse" x1="26.3099" x2="53.2703" y1="99.818" y2="99.818">
      <stop offset="0.5" stop-color="#FFCA28"/>
      <stop offset="1" stop-color="#FFB300"/>
    </linearGradient>
    <linearGradient id="hand_2_" gradientUnits="userSpaceOnUse" x1="68.5775" x2="94.0704" y1="104.21" y2="104.21">
      <stop offset="0.5" stop-color="#FFCA28"/>
      <stop offset="1" stop-color="#FFB300"/>
    </linearGradient>
    <radialGradient id="hairHighlights_1_" cx="63.89" cy="-35.768382" gradientTransform="matrix(1 0 0 -1.1282 0 0)" gradientUnits="userSpaceOnUse" r="32.9088">
      <stop offset="0.7945" stop-color="#6D4C41" stop-opacity="0"/>
      <stop offset="1" stop-color="#6D4C41"/>
    </radialGradient>
  </defs>
  <path d="M105.85,103.24 C103.74,98.46 97.53,83.58 89.92,80.14 C81.66,76.42 64,80.84 64,80.84 C64,80.84 46.6,76.61 38.34,80.34 C30.73,83.77 24.26,98.46 22.14,103.24 C20.03,108.02 18.34,114.59 21.01,118.62 C23.69,122.65 26.94,124 32.93,124 C36.6,124 86.1,124 94.04,124 C101.98,124 104.3,122.66 106.97,118.62 C109.65,114.59 107.96,108.02 105.85,103.24 Z" fill="url(#SVGID_1_)"/>
  <path id="hand_9_" d="M52.88,101.03 C53.26,100.91 53.38,100.46 53.16,100.13 C51.62,97.81 47.44,93.37 42.4,92.34 C39.15,91.67 35.98,92.03 33.25,92.72 C30.85,93.33 28.16,94.95 27.46,95.92 C25.82,98.2 27.83,99.09 27.83,99.09 C27.83,99.09 25.82,100.5 26.42,102.06 C27.14,103.9 29.66,102.96 29.66,102.96 C29.66,102.96 28.38,104.13 29.57,105.49 C30.56,106.63 32.94,105.84 32.94,105.84 C32.94,105.84 32.55,106.74 33.71,107.41 C35.28,108.32 37.63,106.23 39.25,105.58 C40.13,105.23 41.87,104.62 42.92,104.24 C46.16,103.09 50.16,102.28 52.88,101.03 Z" fill="url(#hand_1_)"/>
  <path d="M47.95,124 C59.2,122.56 79.64,113.11 80.22,112.6 C80.8,112.09 80.42,110.61 80.42,110.61 C80.42,110.61 92.94,105.43 93.62,106.35 C94.3,107.27 93.98,107.59 93.05,108.22 C92.39,108.66 81.99,112.88 77.32,115.89 C69.99,120.6 63.08,123.95 63.08,123.95 L47.95,124 Z" fill="#00796B"/>
  <path id="hand_8_" d="M68.58,98.96 C68.58,98.96 76.17,101.97 80.43,110.61 C80.43,110.61 82.31,110.37 84.77,109.55 C87.23,108.73 88.12,107.9 89.69,107.62 C91.26,107.34 93.65,107.28 93.95,106.75 C94.75,105.33 91.84,100.6 86.63,98.96 C78.41,96.37 68.58,98.96 68.58,98.96 Z" fill="url(#hand_2_)"/>
  <path id="tone_11_" d="M31.3,106.12 C31.65,105.66 32.5,104.89 33,104.46 C34.55,103.11 36.77,101.94 39.16,101.26 C39.44,101.18 39.74,101.34 39.82,101.63 C39.9,101.91 39.74,102.21 39.45,102.29 C36.52,103.12 34.5,104.31 32.94,105.86 C32.94,105.86 32.67,105.94 32.16,106.06 C31.78,106.14 31.3,106.12 31.3,106.12 Z" fill="#EDA600"/>
  <path id="tone_7_" d="M27.91,103.19 C30.63,99.98 33.66,99.03 37.01,98.17 C37.29,98.1 37.59,98.27 37.66,98.56 C37.73,98.85 37.56,99.14 37.27,99.21 C34.11,100.02 31.71,100.98 29.65,102.97 C29.65,102.97 29.34,103.11 28.92,103.17 C28.37,103.25 27.91,103.19 27.91,103.19 Z" fill="#EDA600"/>
  <path id="tone_5_" d="M27.03,98.4 C28.93,96.7 31.38,95.52 34.66,94.73 C34.95,94.67 35.24,94.84 35.31,95.13 C35.38,95.42 35.2,95.71 34.91,95.78 C31.87,96.51 29.59,97.58 27.84,99.12 C27.84,99.12 27.57,99.03 27.38,98.88 C27.19,98.71 27.03,98.4 27.03,98.4 Z" fill="#EDA600"/>
  <path id="neck_1_" d="M71.81,77.11 L56.19,77.11 L56.19,85.7 C56.19,89.58 59.37,92.73 63.3,92.73 L64.72,92.73 C68.64,92.73 71.83,89.58 71.83,85.7 L71.81,77.11 L71.81,77.11 Z" fill="#E59600"/>
  <path id="ears_3_" d="M87.51,43 L40.49,43 C35.42,43 31.28,47.42 31.28,52.82 C31.28,58.22 35.43,62.64 40.49,62.64 L87.5,62.64 C92.57,62.64 96.71,58.22 96.71,52.82 C96.72,47.42 92.58,43 87.51,43 Z" fill="#E59600"/>
  <path id="head_3_" d="M64,9.14 C49.03,9.14 35.16,25.15 35.16,48.19 C35.16,71.11 49.45,82.44 64,82.44 C78.55,82.44 92.84,71.1 92.84,48.19 C92.84,25.15 78.97,9.14 64,9.14 Z" fill="#FFCA28"/>
  <path id="eye" d="M54.1,50.21 C54.1,51.54 53.52,52.74 52.61,53.54 L47.1,53.54 C46.19,52.74 45.61,51.54 45.61,50.21 C45.61,47.78 47.51,45.82 49.85,45.82 C52.2,45.82 54.1,47.78 54.1,50.21 Z" fill="#404040"/>
  <path id="eye_3_" d="M82.38,50.21 C82.38,51.54 81.8,52.74 80.89,53.54 L75.38,53.54 C74.47,52.74 73.89,51.54 73.89,50.21 C73.89,47.78 75.79,45.82 78.13,45.82 C80.48,45.82 82.38,47.78 82.38,50.21 Z" fill="#404040"/>
  <path id="nose_3_" d="M67.32,58.17 C67.23,58.14 67.14,58.11 67.04,58.1 L60.96,58.1 C60.87,58.11 60.77,58.13 60.68,58.17 C60.13,58.39 59.83,58.96 60.09,59.57 C60.35,60.18 61.56,61.88 64,61.88 C66.44,61.88 67.66,60.17 67.91,59.57 C68.17,58.96 67.87,58.39 67.32,58.17 Z" fill="#E59600"/>
  <path id="mouth_3_" d="M72.25,70.09 C71.84,68.62 68.2,65.28 63.75,65.28 C59.27,65.28 56.14,68.93 55.76,70.08 C55.74,70.15 55.67,70.36 55.82,70.48 C56.02,70.63 56.27,70.47 57.03,69.98 C58.39,69.1 60.93,67.47 63.83,67.47 C66.57,67.47 69.12,69.01 70.64,69.93 C71.35,70.36 71.74,70.6 71.99,70.6 C72.06,70.6 72.12,70.58 72.17,70.54 C72.34,70.41 72.28,70.17 72.25,70.09 Z" fill="#795548"/>
  <path id="tone_8_" d="M63.9,71.88 C66.36,71.88 68.44,73.22 68.24,72.5 C68.03,71.78 66.11,69.99 63.76,69.99 C61.41,69.99 59.75,71.9 59.55,72.5 C59.36,73.11 61.44,71.88 63.9,71.88 Z" fill="#EDA600"/>
  <path id="hair_4_" d="M63.9,3.15 L63.9,3.15 C63.89,3.15 63.89,3.15 63.89,3.15 C63.89,3.15 63.88,3.15 63.88,3.15 L63.88,3.15 C24.62,3.36 32.66,48.19 32.66,48.19 C32.66,48.19 34.42,52.81 35.22,54.85 C35.34,55.15 35.76,55.11 35.83,54.8 C36.67,51.05 39.69,37.76 41.21,33.72 C42.11,31.34 44.58,29.95 47.08,30.41 C50.93,31.11 57.06,31.97 63.82,31.97 C63.84,31.97 63.87,31.97 63.89,31.97 C63.91,31.97 63.94,31.97 63.96,31.97 C70.72,31.97 76.85,31.11 80.7,30.41 C83.2,29.96 85.67,31.34 86.57,33.72 C88.08,37.75 91.08,50.96 91.93,54.77 C92,55.08 92.43,55.11 92.54,54.81 L95.12,48.19 C95.12,48.19 103.16,3.36 63.9,3.15 Z" fill="#543930"/>
  <path id="hairHighlights_5_" d="M95.12,48.19 C95.12,48.19 103.16,3.36 63.91,3.15 L63.91,3.15 C63.9,3.15 63.9,3.15 63.9,3.15 L63.9,3.15 C63.9,3.15 63.89,3.15 63.89,3.15 L63.89,3.15 C63.28,3.15 62.68,3.17 62.09,3.19 C60.92,3.24 59.79,3.33 58.71,3.46 C58.7,3.46 58.69,3.46 58.68,3.46 C58.6,3.47 58.53,3.48 58.45,3.49 C25.41,7.65 32.67,48.19 32.67,48.19 L35.24,54.82 C35.35,55.11 35.78,55.08 35.85,54.78 C36.7,50.99 39.7,37.75 41.22,33.72 C42.12,31.34 44.59,29.95 47.09,30.41 C50.94,31.11 57.07,31.97 63.83,31.97 C63.85,31.97 63.88,31.97 63.9,31.97 C63.92,31.97 63.95,31.97 63.97,31.97 C70.73,31.97 76.86,31.11 80.71,30.41 C83.21,29.96 85.68,31.34 86.58,33.72 C88.1,37.76 91.12,51.08 91.95,54.82 C92.02,55.13 92.44,55.16 92.55,54.87 C93.34,52.83 95.12,48.19 95.12,48.19 Z" fill="url(#hairHighlights_1_)"/>
  <path id="eyebrows_4_" d="M43.32,42.91 C46.07,39.01 52.53,38.88 55.77,42.2 C56.33,42.77 56.93,43.53 56.5,44.36 C56.03,45.29 55.08,45.14 54.29,44.82 C52.19,43.97 50.03,43.59 47.77,44.05 C46.79,44.25 45.96,44.66 45.03,44.98 C43.79,45.42 42.52,44.11 43.32,42.91 Z" fill="#6D4C41"/>
  <path id="eyebrows_3_" d="M83.07,45.08 C81.14,44.24 79.19,43.76 77.06,44 C76.1,44.11 75.14,44.36 74.24,44.72 C73.53,45 72.75,45.47 72.01,44.96 C69.9,43.5 73.65,41.13 74.75,40.65 C77.14,39.62 79.98,39.71 82.29,40.92 C83.2,41.4 84.2,42.09 84.74,43 C85.42,44.12 84.4,45.63 83.07,45.08 Z" fill="#6D4C41"/>
</svg>
